Numix-Circle/48x48/apps/gtk-gnutella.svg

<svg xmlns="http://www.w3.org/2000/svg" viewBox="0 0 48 48"><defs><linearGradient id="linearGradient3764" x1="1" x2="47" gradientUnits="userSpaceOnUse" gradientTransform="matrix(0,-1,1,0,-1.5e-6,47.999998)"><stop stop-color="#dfdfdf" stop-opacity="1"/><stop offset="1" stop-color="#e9e9e9" stop-opacity="1"/></linearGradient></defs><g><path d="m 36.31 5 c 5.859 4.062 9.688 10.831 9.688 18.5 c 0 12.426 -10.07 22.5 -22.5 22.5 c -7.669 0 -14.438 -3.828 -18.5 -9.688 c 1.037 1.822 2.306 3.499 3.781 4.969 c 4.085 3.712 9.514 5.969 15.469 5.969 c 12.703 0 23 -10.298 23 -23 c 0 -5.954 -2.256 -11.384 -5.969 -15.469 c -1.469 -1.475 -3.147 -2.744 -4.969 -3.781 z m 4.969 3.781 c 3.854 4.113 6.219 9.637 6.219 15.719 c 0 12.703 -10.297 23 -23 23 c -6.081 0 -11.606 -2.364 -15.719 -6.219 c 4.16 4.144 9.883 6.719 16.219 6.719 c 12.703 0 23 -10.298 23 -23 c 0 -6.335 -2.575 -12.06 -6.719 -16.219 z" opacity="0.05"/><path d="m 41.28 8.781 c 3.712 4.085 5.969 9.514 5.969 15.469 c 0 12.703 -10.297 23 -23 23 c -5.954 0 -11.384 -2.256 -15.469 -5.969 c 4.113 3.854 9.637 6.219 15.719 6.219 c 12.703 0 23 -10.298 23 -23 c 0 -6.081 -2.364 -11.606 -6.219 -15.719 z" opacity="0.1"/><path d="m 31.25 2.375 c 8.615 3.154 14.75 11.417 14.75 21.13 c 0 12.426 -10.07 22.5 -22.5 22.5 c -9.708 0 -17.971 -6.135 -21.12 -14.75 a 23 23 0 0 0 44.875 -7 a 23 23 0 0 0 -16 -21.875 z" opacity="0.2"/></g><g><path d="m 24 1 c 12.703 0 23 10.297 23 23 c 0 12.703 -10.297 23 -23 23 -12.703 0 -23 -10.297 -23 -23 0 -12.703 10.297 -23 23 -23 z" fill="url(#linearGradient3764)" fill-opacity="1"/></g><g><path d="m 40.03 7.531 c 3.712 4.084 5.969 9.514 5.969 15.469 0 12.703 -10.297 23 -23 23 c -5.954 0 -11.384 -2.256 -15.469 -5.969 4.178 4.291 10.01 6.969 16.469 6.969 c 12.703 0 23 -10.298 23 -23 0 -6.462 -2.677 -12.291 -6.969 -16.469 z" opacity="0.1"/></g><path d="m 25 13 -13 6 0 12 13 6 13 -6 0 -12 -13 -6 z m -2 3.5 0 7.5 -4 0 0 -5.945 l 4 -1.555 m 4 0 4 1.555 l 0 5.945 -4 0 0 -7.5 m -10 2.334 0 5.166 l -3 0 0 -4 3 -1.166 z m 16 0 l 3 1.166 l 0 4 -3 0 0 -5.166 z m -19 7.166 3 0 0 5.166 -3 -1.166 0 -4 m 5 0 4 0 0 7.5 l -4 -1.555 0 -5.945 m 8 0 4 0 0 5.945 l -4 1.555 0 -7.5 m 6 0 3 0 0 4 -3 1.166 l 0 -5.166" visibility="visible" shape-rendering="auto" mix-blend-mode="normal" color-interpolation-filters="linearRGB" isolation="auto" white-space="normal" opacity="1" fill="#000" solid-opacity="1" image-rendering="auto" fill-opacity="0.102" solid-color="#000000" stroke="none" display="inline" color="#000" fill-rule="evenodd" color-rendering="auto" color-interpolation="sRGB"/><g><path d="m 24 12 -13 6 0 12 13 6 z m -2 3.5 0 17 -9 -3.5 0 -10 z" visibility="visible" shape-rendering="auto" mix-blend-mode="normal" color-interpolation-filters="linearRGB" isolation="auto" white-space="normal" opacity="1" fill="#0e0e72" solid-opacity="1" image-rendering="auto" fill-opacity="1" solid-color="#000000" stroke="none" display="inline" color="#000" fill-rule="evenodd" color-rendering="auto" color-interpolation="sRGB"/><rect y="23" x="12" height="2" width="11" stroke-dasharray="none" fill="#0e0e72" fill-opacity="1" stroke-width="2" stroke-miterlimit="4"/><rect y="16" x="16" height="16" width="2" stroke-dasharray="none" fill="#0e0e72" fill-opacity="1" stroke-width="2" stroke-miterlimit="4"/><path d="m 24 12 13 6 0 12 -13 6 z m 2 3.5 0 17 9 -3.5 0 -10 z" visibility="visible" shape-rendering="auto" mix-blend-mode="normal" color-interpolation-filters="linearRGB" isolation="auto" white-space="normal" opacity="1" fill="#7979b2" solid-opacity="1" image-rendering="auto" fill-opacity="1" solid-color="#000000" stroke="none" display="inline" color="#000" fill-rule="evenodd" color-rendering="auto" color-interpolation="sRGB"/><rect transform="scale(-1,1)" width="11" height="2" x="-36" y="23" stroke-dasharray="none" fill="#7979b2" fill-opacity="1" stroke-width="2" stroke-miterlimit="4"/><rect transform="scale(-1,1)" width="2" height="16" x="-32" y="16" stroke-dasharray="none" fill="#7979b2" fill-opacity="1" stroke-width="2" stroke-miterlimit="4"/></g></svg>

<?xml version="1.0" encoding="UTF-8" standalone="no"?>
<svg
   xmlns:dc="http://purl.org/dc/elements/1.1/"
   xmlns:cc="http://creativecommons.org/ns#"
   xmlns:rdf="http://www.w3.org/1999/02/22-rdf-syntax-ns#"
   xmlns:svg="http://www.w3.org/2000/svg"
   xmlns="http://www.w3.org/2000/svg"
   xmlns:sodipodi="http://sodipodi.sourceforge.net/DTD/sodipodi-0.dtd"
   xmlns:inkscape="http://www.inkscape.org/namespaces/inkscape"
   viewBox="0 0 48 48"
   id="svg2"
   version="1.1"
   inkscape:version="0.91 r13725"
   sodipodi:docname="gtk-gnutella.svg">
  <metadata
     id="metadata61">
    <rdf:RDF>
      <cc:Work
         rdf:about="">
        <dc:format>image/svg+xml</dc:format>
        <dc:type
           rdf:resource="http://purl.org/dc/dcmitype/StillImage" />
      </cc:Work>
    </rdf:RDF>
  </metadata>
  <sodipodi:namedview
     pagecolor="#ffffff"
     bordercolor="#666666"
     borderopacity="1"
     objecttolerance="10"
     gridtolerance="10"
     guidetolerance="10"
     inkscape:pageopacity="0"
     inkscape:pageshadow="2"
     inkscape:window-width="1366"
     inkscape:window-height="718"
     id="namedview59"
     showgrid="false"
     showguides="false"
     inkscape:zoom="1"
     inkscape:cx="20.652584"
     inkscape:cy="23.267767"
     inkscape:window-x="0"
     inkscape:window-y="25"
     inkscape:window-maximized="1"
     inkscape:current-layer="svg2">
    <inkscape:grid
       type="xygrid"
       id="grid3389" />
  </sodipodi:namedview>
  <defs
     id="defs4">
    <linearGradient
       id="linearGradient3764"
       x1="1"
       x2="47"
       gradientUnits="userSpaceOnUse"
       gradientTransform="matrix(0,-1,1,0,-1.5e-6,47.999998)">
      <stop
         stop-color="#dfdfdf"
         stop-opacity="1"
         id="stop7" />
      <stop
         offset="1"
         stop-color="#e9e9e9"
         stop-opacity="1"
         id="stop9" />
    </linearGradient>
  </defs>
  <g
     id="g21">
    <path
       d="m 36.31 5 c 5.859 4.062 9.688 10.831 9.688 18.5 c 0 12.426 -10.07 22.5 -22.5 22.5 c -7.669 0 -14.438 -3.828 -18.5 -9.688 c 1.037 1.822 2.306 3.499 3.781 4.969 c 4.085 3.712 9.514 5.969 15.469 5.969 c 12.703 0 23 -10.298 23 -23 c 0 -5.954 -2.256 -11.384 -5.969 -15.469 c -1.469 -1.475 -3.147 -2.744 -4.969 -3.781 z m 4.969 3.781 c 3.854 4.113 6.219 9.637 6.219 15.719 c 0 12.703 -10.297 23 -23 23 c -6.081 0 -11.606 -2.364 -15.719 -6.219 c 4.16 4.144 9.883 6.719 16.219 6.719 c 12.703 0 23 -10.298 23 -23 c 0 -6.335 -2.575 -12.06 -6.719 -16.219 z"
       opacity="0.05"
       id="path23" />
    <path
       d="m 41.28 8.781 c 3.712 4.085 5.969 9.514 5.969 15.469 c 0 12.703 -10.297 23 -23 23 c -5.954 0 -11.384 -2.256 -15.469 -5.969 c 4.113 3.854 9.637 6.219 15.719 6.219 c 12.703 0 23 -10.298 23 -23 c 0 -6.081 -2.364 -11.606 -6.219 -15.719 z"
       opacity="0.1"
       id="path25" />
    <path
       d="m 31.25 2.375 c 8.615 3.154 14.75 11.417 14.75 21.13 c 0 12.426 -10.07 22.5 -22.5 22.5 c -9.708 0 -17.971 -6.135 -21.12 -14.75 a 23 23 0 0 0 44.875 -7 a 23 23 0 0 0 -16 -21.875 z"
       opacity="0.2"
       id="path27" />
  </g>
  <g
     id="g29">
    <path
       d="m 24 1 c 12.703 0 23 10.297 23 23 c 0 12.703 -10.297 23 -23 23 -12.703 0 -23 -10.297 -23 -23 0 -12.703 10.297 -23 23 -23 z"
       fill="url(#linearGradient3764)"
       fill-opacity="1"
       id="path31" />
  </g>
  <g
     id="g33" />
  <g
     id="g55">
    <path
       d="m 40.03 7.531 c 3.712 4.084 5.969 9.514 5.969 15.469 0 12.703 -10.297 23 -23 23 c -5.954 0 -11.384 -2.256 -15.469 -5.969 4.178 4.291 10.01 6.969 16.469 6.969 c 12.703 0 23 -10.298 23 -23 0 -6.462 -2.677 -12.291 -6.969 -16.469 z"
       opacity="0.1"
       id="path57" />
  </g>
  <path
     style="color:#000000;font-style:normal;font-variant:normal;font-weight:normal;font-stretch:normal;font-size:medium;line-height:normal;font-family:sans-serif;text-indent:0;text-align:start;text-decoration:none;text-decoration-line:none;text-decoration-style:solid;text-decoration-color:#000000;letter-spacing:normal;word-spacing:normal;text-transform:none;direction:ltr;block-progression:tb;writing-mode:lr-tb;baseline-shift:baseline;text-anchor:start;white-space:normal;clip-rule:nonzero;display:inline;overflow:visible;visibility:visible;opacity:1;isolation:auto;mix-blend-mode:normal;color-interpolation:sRGB;color-interpolation-filters:linearRGB;solid-color:#000000;solid-opacity:1;fill:#000000;fill-opacity:0.10196079;fill-rule:evenodd;stroke:none;stroke-width:2;stroke-linecap:butt;stroke-linejoin:miter;stroke-miterlimit:4;stroke-dasharray:none;stroke-dashoffset:0;stroke-opacity:1;color-rendering:auto;image-rendering:auto;shape-rendering:auto;text-rendering:auto;enable-background:accumulate"
     d="m 25,13 -13,6 0,12 13,6 13,-6 0,-12 -13,-6 z m -2,3.5 0,7.5 -4,0 0,-5.945312 L 23,16.5 Z m 4,0 4,1.554688 L 31,24 27,24 27,16.5 Z M 17,18.833984 17,24 l -3,0 0,-4 3,-1.166016 z m 16,0 L 36,20 l 0,4 -3,0 0,-5.166016 z M 14,26 17,26 17,31.166016 14,30 14,26 Z m 5,0 4,0 0,7.5 L 19,31.945312 19,26 Z m 8,0 4,0 0,5.945312 L 27,33.5 27,26 Z m 6,0 3,0 0,4 -3,1.166016 L 33,26 Z"
     id="path3355"
     inkscape:connector-curvature="0" />
  <g
     id="g4218">
    <path
       sodipodi:nodetypes="cccccccccc"
       inkscape:connector-curvature="0"
       id="path3391"
       d="m 24,12 -13,6 0,12 13,6 z m -2,3.5 0,17 -9,-3.5 0,-10 z"
       style="color:#000000;font-style:normal;font-variant:normal;font-weight:normal;font-stretch:normal;font-size:medium;line-height:normal;font-family:sans-serif;text-indent:0;text-align:start;text-decoration:none;text-decoration-line:none;text-decoration-style:solid;text-decoration-color:#000000;letter-spacing:normal;word-spacing:normal;text-transform:none;direction:ltr;block-progression:tb;writing-mode:lr-tb;baseline-shift:baseline;text-anchor:start;white-space:normal;clip-rule:nonzero;display:inline;overflow:visible;visibility:visible;opacity:1;isolation:auto;mix-blend-mode:normal;color-interpolation:sRGB;color-interpolation-filters:linearRGB;solid-color:#000000;solid-opacity:1;fill:#0e0e72;fill-opacity:1;fill-rule:evenodd;stroke:none;stroke-width:2;stroke-linecap:butt;stroke-linejoin:miter;stroke-miterlimit:4;stroke-dasharray:none;stroke-dashoffset:0;stroke-opacity:1;color-rendering:auto;image-rendering:auto;shape-rendering:auto;text-rendering:auto;enable-background:accumulate" />
    <rect
       y="23"
       x="12"
       height="2"
       width="11"
       id="rect4193"
       style="stroke-width:2;stroke-miterlimit:4;stroke-dasharray:none;fill:#0e0e72;fill-opacity:1" />
    <rect
       y="15.999999"
       x="16"
       height="16"
       width="2"
       id="rect4195"
       style="stroke-width:2;stroke-miterlimit:4;stroke-dasharray:none;fill:#0e0e72;fill-opacity:1" />
    <path
       sodipodi:nodetypes="cccccccccc"
       style="color:#000000;font-style:normal;font-variant:normal;font-weight:normal;font-stretch:normal;font-size:medium;line-height:normal;font-family:sans-serif;text-indent:0;text-align:start;text-decoration:none;text-decoration-line:none;text-decoration-style:solid;text-decoration-color:#000000;letter-spacing:normal;word-spacing:normal;text-transform:none;direction:ltr;block-progression:tb;writing-mode:lr-tb;baseline-shift:baseline;text-anchor:start;white-space:normal;clip-rule:nonzero;display:inline;overflow:visible;visibility:visible;opacity:1;isolation:auto;mix-blend-mode:normal;color-interpolation:sRGB;color-interpolation-filters:linearRGB;solid-color:#000000;solid-opacity:1;fill:#7979b2;fill-opacity:1;fill-rule:evenodd;stroke:none;stroke-width:2;stroke-linecap:butt;stroke-linejoin:miter;stroke-miterlimit:4;stroke-dasharray:none;stroke-dashoffset:0;stroke-opacity:1;color-rendering:auto;image-rendering:auto;shape-rendering:auto;text-rendering:auto;enable-background:accumulate"
       d="m 24,12 13,6 0,12 -13,6 z m 2,3.5 0,17 9,-3.5 0,-10 z"
       id="path4199"
       inkscape:connector-curvature="0" />
    <rect
       transform="scale(-1,1)"
       style="fill:#7979b2;fill-opacity:1;stroke-width:2;stroke-miterlimit:4;stroke-dasharray:none"
       id="rect4201"
       width="11"
       height="2"
       x="-35.999989"
       y="23" />
    <rect
       transform="scale(-1,1)"
       style="fill:#7979b2;fill-opacity:1;stroke-width:2;stroke-miterlimit:4;stroke-dasharray:none"
       id="rect4203"
       width="2"
       height="16"
       x="-32.000023"
       y="15.999999" />
  </g>
  <g
     id="g3353" />
</svg>
